src/assets/svg/investment-6.svg

<svg width="36" height="38" viewBox="0 0 36 38" fill="none" xmlns="http://www.w3.org/2000/svg">
<path d="M1 29.1845L8.06418 35.0723C9.10303 35.9372 10.4121 36.4107 11.7639 36.4105H30.3869C31.7165 36.4105 32.7946 35.3324 32.7946 34.0028C32.7946 31.3436 30.6384 29.1845 27.9763 29.1845H15.0301M23.3487 1.00289C22.9654 1.00289 22.5978 1.15515 22.3268 1.42618C22.0558 1.69721 21.9035 2.06481 21.9035 2.4481V6.51492H17.8396C17.4563 6.51492 17.0887 6.66718 16.8177 6.93821C16.5466 7.20924 16.3944 7.57684 16.3944 7.96013V12.6571C16.3944 13.0404 16.5466 13.408 16.8177 13.679C17.0887 13.95 17.4563 14.1023 17.8396 14.1023H21.9035V18.1662C21.9035 18.5495 22.0558 18.9171 22.3268 19.1881C22.5978 19.4591 22.9654 19.6114 23.3487 19.6114H28.0457C28.4289 19.6114 28.7965 19.4591 29.0676 19.1881C29.3386 18.9171 29.4909 18.5495 29.4909 18.1662V14.1023H33.5548C33.9381 14.1023 34.3057 13.95 34.5767 13.679C34.8477 13.408 35 13.0404 35 12.6571V7.96013C35 7.57684 34.8477 7.20924 34.5767 6.93821C34.3057 6.66718 33.9381 6.51492 33.5548 6.51492H29.4909V2.44521C29.4909 2.06192 29.3386 1.69432 29.0676 1.42329C28.7965 1.15226 28.4289 1 28.0457 1L23.3487 1.00289Z" stroke="#00C700" stroke-width="2" stroke-linecap="round" stroke-linejoin="round"/>
<path d="M9.67126 26.2934L11.8391 28.4612C12.1238 28.7459 12.4617 28.9717 12.8337 29.1258C13.2056 29.2799 13.6043 29.3592 14.0069 29.3592C14.4095 29.3592 14.8081 29.2799 15.1801 29.1258C15.5521 28.9717 15.89 28.7459 16.1747 28.4612C16.4594 28.1766 16.6852 27.8386 16.8393 27.4666C16.9933 27.0947 17.0726 26.696 17.0726 26.2934C17.0726 25.8908 16.9933 25.4922 16.8393 25.1202C16.6852 24.7483 16.4594 24.4103 16.1747 24.1256L12.8103 20.7612C11.7264 19.677 10.2562 19.0677 8.7232 19.0674H1" stroke="#00C700" stroke-width="2" stroke-linecap="round" stroke-linejoin="round"/>
</svg>

<svg xmlns="http://www.w3.org/2000/svg" width="36" height="38" fill="none"><path stroke="#00C700" stroke-linecap="round" stroke-linejoin="round" stroke-width="2" d="m1 29.185 7.064 5.887a5.78 5.78 0 0 0 3.7 1.338h18.623a2.41 2.41 0 0 0 2.408-2.407 4.82 4.82 0 0 0-4.819-4.818H15.03m8.32-28.182a1.445 1.445 0 0 0-1.445 1.445v4.067H17.84a1.445 1.445 0 0 0-1.446 1.445v4.697a1.445 1.445 0 0 0 1.446 1.445h4.064v4.064a1.445 1.445 0 0 0 1.445 1.445h4.697a1.446 1.446 0 0 0 1.445-1.445v-4.064h4.064A1.445 1.445 0 0 0 35 12.657V7.96a1.445 1.445 0 0 0-1.445-1.445H29.49v-4.07A1.445 1.445 0 0 0 28.046 1z"/><path stroke="#00C700" stroke-linecap="round" stroke-linejoin="round" stroke-width="2" d="m9.671 26.293 2.168 2.168a3.066 3.066 0 1 0 4.336-4.335L12.81 20.76a5.78 5.78 0 0 0-4.087-1.694H1"/></svg>
